common/src/main/resources/icons/plugins/resharper/ProjectModel/LayerSolutionShared.svg

<svg xmlns="http://www.w3.org/2000/svg" width="16" height="16" fill="#BA68C8" data-big="true" viewBox="0 0 24 24"><path d="M12 6a3 3 0 0 0-3 3 3 3 0 0 0 3 3 3 3 0 0 0 3-3 3 3 0 0 0-3-3M6 8.17a2.5 2.5 0 0 0-2.5 2.5 2.5 2.5 0 0 0 2.5 2.5c.88 0 1.65-.46 2.09-1.14C7.42 11.18 7 10.15 7 9c0-.2 0-.4.04-.6-.32-.15-.67-.23-1.04-.23m12 0c-.37 0-.72.08-1.04.23.04.2.04.4.04.6 0 1.15-.42 2.18-1.09 3.03A2.49 2.49 0 0 0 18 13.17a2.5 2.5 0 0 0 2.5-2.5 2.5 2.5 0 0 0-2.5-2.5M12 14c-2 0-6 1-6 3v2h12v-2c0-2-4-3-6-3m-7.33.97C3 15.26 1 16.04 1 17.33V19h3v-2c0-.78.29-1.47.67-2.03m14.66 0c.38.56.67 1.25.67 2.03v2h3v-1.67c0-1.29-2-2.07-3.67-2.36"/></svg>

<!--
  - The MIT License (MIT)
  -
  - Copyright (c) 2015-2024 Elior "Mallowigi" Boukhobza
  -
  - Permission is hereby granted, free of charge, to any person obtaining a copy
  - of this software and associated documentation files (the "Software"), to deal
  - in the Software without restriction, including without limitation the rights
  - to use, copy, modify, merge, publish, distribute, sublicense, and/or sell
  - copies of the Software, and to permit persons to whom the Software is
  - furnished to do so, subject to the following conditions:
  -
  - The above copyright notice and this permission notice shall be included in all
  - copies or substantial portions of the Software.
  -
  - THE SOFTWARE IS PROVIDED "AS IS", WITHOUT WARRANTY OF ANY KIND, EXPRESS OR
  - IMPLIED, INCLUDING BUT NOT LIMITED TO THE WARRANTIES OF MERCHANTABILITY,
  - FITNESS FOR A PARTICULAR PURPOSE AND NONINFRINGEMENT. IN NO EVENT SHALL THE
  - AUTHORS OR COPYRIGHT HOLDERS BE LIABLE FOR ANY CLAIM, DAMAGES OR OTHER
  - LIABILITY, WHETHER IN AN ACTION OF CONTRACT, TORT OR OTHERWISE, ARISING FROM,
  - OUT OF OR IN CONNECTION WITH THE SOFTWARE OR THE USE OR OTHER DEALINGS IN THE
  - SOFTWARE.
  -->


<svg data-big="true" xmlns="http://www.w3.org/2000/svg" version="1.1" width="16px" height="16px" viewBox="0 0 24 24"
     fill="#BA68C8">
  <path
    d="M12,6A3,3 0 0,0 9,9A3,3 0 0,0 12,12A3,3 0 0,0 15,9A3,3 0 0,0 12,6M6,8.17A2.5,2.5 0 0,0 3.5,10.67A2.5,2.5 0 0,0 6,13.17C6.88,13.17 7.65,12.71 8.09,12.03C7.42,11.18 7,10.15 7,9C7,8.8 7,8.6 7.04,8.4C6.72,8.25 6.37,8.17 6,8.17M18,8.17C17.63,8.17 17.28,8.25 16.96,8.4C17,8.6 17,8.8 17,9C17,10.15 16.58,11.18 15.91,12.03C16.35,12.71 17.12,13.17 18,13.17A2.5,2.5 0 0,0 20.5,10.67A2.5,2.5 0 0,0 18,8.17M12,14C10,14 6,15 6,17V19H18V17C18,15 14,14 12,14M4.67,14.97C3,15.26 1,16.04 1,17.33V19H4V17C4,16.22 4.29,15.53 4.67,14.97M19.33,14.97C19.71,15.53 20,16.22 20,17V19H23V17.33C23,16.04 21,15.26 19.33,14.97Z"/>
</svg>
